X: 35030
T: Rollicking Boys Of Tandragee, The
R: jig
M: 6/8
K: Eminor
BAB EEE|BAB d^cd|BAB DDE|FED FGA|
BAB EEE|BAB def|edB AFA|BEE E2A:|
|:Bee edB|def afd|edd dBA|Bdd d^cd|
Bee edB|def afd|edB AFA|BEE E3:|

